X:303
T:Sbrando, Untitled 2
R:jig 48 sbrando
C:Trad arr. P J Headford
S:Rod Stradling
M:6/8
L:1/8
Q:3/8=110
K:D
|:F2G|A2A ABA|F2F AGF|E2E GFE|F2D F2G|\
A2A ABA|F2F AGF|E2E GFE|D3:|]
|:EFE|D2D EFG|F2D EFG|F2F GFE|\
F2D F2G|A2A ABA|F2F AGF|E2E GFE|D3:|]
K:G
|:DEF|G2G GAB|"^*"c2c cde|ded cBA|B2A DEF|\
G2G GAB|c2c cde|ded cBA|G3:|]

